X:1
T:Khvalitye imya Gospodie
T:Сергeй Рахманинов, 1910
T:Attributed to John Chrysostom, c. 349-407 AD
T:Слава Отцу и Благочестивейшаго
T:Литургиа Святого Иоанна Златоуста , Op. 31, No. 20
T:Public Domain
T:Public Domain
T:Public Domain
C:Sergei Rakhmanninov
Z:Public Domain
%%score [ 1 ( 2 3 ) ( 4 5 ) ( 6 7 ) ]
L:1/8
Q:1/4=120
M:3/4
K:Bb
V:1 treble nm="Сопрано" snm="С"
V:2 treble nm="Альт" snm="А"
V:3 treble 
V:4 treble-8 nm="Тенор" snm="Т"
V:5 treble-8 
V:6 bass nm="Бас" snm="Б"
V:7 bass 
V:1
"^Довольно скоро\nModerately fast"!p!"^А       –       минь.               Сла–ва  От – цу          и         Сы – ну           и   Свя–то–му  Ду – ху,   и     ны – не    и""^A       –       min'.                  Sla –va   Ot – tsu         i          Sui – nu            i  Svya–to–mu  Du–khu,  i      nui – nye  i" (B4 A2) | %1
w: |
w: |
 B6 ||[M:4/4][Q:1/4=100]"^В том же темпе\nMajestically"!ff! e2 ee!>(! d3 c!>)! | %3
w: ||
w: ||
 !tenuto!c2!mf! c2!<(! cccc!<)! |!f! !tenuto!B2!>(! BB!mf! A2!<(! Bc!>)!!<)! | %5
w: ||
w: ||
"^присно  и    во  ве – ки   ве –ков.  А – минь.     Го      –     спо – ди,  по–ми – луй,     Го      –    спо – ди,  по – ми – луй,""^prisno    i     vo   vye–ki  vye–kov.  A – min'.       Go     –      spo – di,   po– mi – lui,       Go     –     spo – di,   po – mi –  lui,"!<(! ddef!ff! !tenuto!g2!>(! ee!<)!!>)! | %6
w: |
w: |
 d2!p! c2 B4 ||!mf! !tenuto!B3!>(! B BBBB!>)! | !tenuto!B3 B BBB!p!B | %9
w: |||
w: |||
"^задерживая\nslowing"[Q:1/4=90]"^Го–спо–ди,  по–ми       –         луй,           бла– го – сло  –  ви.""^Go–spo– di,  po– mi       –          lui,             bla – go –  slo   –  vi." (3:2:2!tenuto!B2 B!>(! B!<(!B[Q:1/4=80] (!tenuto!B2!>(! A2)!>)!!<)!!>)! | %10
w: |
w: |
!p! B2 z!pp![Q:1/4=70] ^F G2 A2 | !fermata!B8 ||!f![Q:1/4=130] [Bd]-x x2 x2 x2 x2 x2 x2 [Bd]16 || %13
w: ||Вся ста–ны,|
w: ||Vya sta–nui,-|
"^Широко\nBroadly"[Q:1/4=80]!ff!"^Го  – спо–ди, ________     со–хра–ни                  их ________    на      мно–га–я            ле        –        –        –        –       та.""^Go –  spo–di,  ________    so–khra–ni                 ikh _______    na      mno–ga–ya         lye       –        –        –        –        ta." [Bd]3 [GB] [GB]4- | %14
w: |
w: |
 [GB]2 [GB][GB] [Bf]4 |[M:6/4] [Bd]4- [Bd]2 !tenuto![Bd]2 (3c2 d2 e2 |[M:4/4] c6- cB | %17
w: |||
w: |||
 !fermata!B8 |] %18
w: |
w: |
V:2
!p! (D4 C2) | D6 ||[M:4/4]!ff! B2 BA!>(! B3 =E!>)! | !tenuto!F2!mf! F2!<(! EFGA!<)! | %4
!f! !tenuto![DG]2!>(! GG!mf! F2!<(! FF!>)!!<)! |!<(! BBcd!ff! !tenuto!e2!>(! BB!<)!!>)! | %6
 B2!p! A2 B4 ||!mf! !tenuto![B,D]3!>(! [B,D] [B,D][B,D][B,D][B,D]!>)! | %8
 !tenuto![CE]3 [CE] [CE][CE][CE]!p![CE] | %9
 (3:2:2!tenuto![DF]2 [DF]!>(! [DF]!<(![DF]!>(! !tenuto![EG]4!>)!!<)!!>)! | %10
!p! [DG]2 z!pp! C B,2 E2 | !fermata!D8 ||!f! [DF]-x x2 x2 x2 x2 x2 x2 [DF]16 ||!ff! [DF]3 E E4- | %14
 E2 EE [FB]4 |[M:6/4] G4- G2 !tenuto![GB]2 (3[GB]2 [GB]2 [GB]2 |[M:4/4] (B4 A3 B) | !fermata!B8 |] %18
V:3
 x6 | x6 ||[M:4/4] x8 | x8 | x8 | x8 | x8 || x8 | x8 | x8 | x8 | x8 || x30 || x8 | x8 | %15
[M:6/4] x12 |[M:4/4] F6- FD | D8 |] %18
V:4
!p!"^А       –       минь.               Сла–ва  От – цу          и         Сы – ну           и   Свя–то–му  Ду – ху,   и     ны – не    и""^A       –       min'.                  Sla –va   Ot – tsu         i          Sui – nu            i  Svya–to–mu  Du–khu,  i      nui – nye  i" F6 | %1
w: |
w: |
 F6 ||[M:4/4]!ff! g2 gf!>(! !>!f3 c!>)! | !tenuto![Ac]2!mf! [Ac]2!<(! [Gc][Gc][Gc][Ac]!<)! | %4
w: |||
w: |||
!f! !tenuto!B2!>(! cc!mf! c2!<(! de!>)!!<)! | %5
w: |
w: |
"^присно  и    во  ве – ки   ве –ков.  А – минь.     Го      –     спо – ди,  по–ми – луй,     Го      –    спо – ди,  по – ми – луй,""^prisno    i     vo   vye–ki  vye–kov.  A – min'.       Go     –      spo – di,   po– mi – lui,       Go     –     spo – di,   po – mi –  lui,"!<(! [df][df][eg][f_a]!ff! !tenuto![gb]2!>(! ee!<)!!>)! | %6
w: |
w: |
 f2!p! e2 d4 ||!mf! !tenuto!F3!>(! F FFFF!>)! | !tenuto!G3 G GGG!p!G | %9
w: |||
w: |||
"^Го–спо–ди,  по–ми       –         луй,           бла– го – сло  –  ви.""^Go–spo– di,  po– mi       –          lui,             bla – go –  slo   –  vi." (3:2:2!tenuto!_A2 A!>(! AA!<(! ((!tenuto!B2!>(! [=Ac]2))!>)!!<)!!>)! | %10
w: |
w: |
!p! [Bd]2 z!pp! A G2 [Fc]2 | [FB]8 ||!f! [Bd]-x x2 x2 x2 x2 x2 x2 [Bd]16 || %13
w: ||Вся ста–ны,~|
w: ||Vya sta–nui,-|
!ff!"^Го  – спо–ди, ________     со–хра–ни                  их ________    на      мно–га–я            ле        –        –        –        –       та.""^Go –  spo–di,  ________    so–khra–ni                 ikh _______    na      mno–ga–ya         lye       –        –        –        –        ta." [Bd]3 [GB] [GB]4- | %14
w: |
w: |
 [GB]2 [GB][GB] [Bf]4 |[M:6/4] [Bd]4- [Bd]2 !tenuto![Bd]2 (3[Bc]2 [Bd]2 [Be]2 | %16
w: ||
w: ||
[M:4/4] [ce]6- [ce][Bd] | !fermata![Bd]8 |] %18
w: ||
w: ||
V:5
 x6 | x6 ||[M:4/4] x2 x2 x2 x B | x8 | x8 | x8 | x8 || x8 | x8 | x8 | x8 | x8 || x30 || x8 | x8 | %15
[M:6/4] x12 |[M:4/4] F8 | F8 |] %18
V:6
!p! (B,,4 F,,2) | B,,6 ||[M:4/4]!ff! !>!E2 DC!>(! (!>!B,2 A,)G,!>)! | %3
 !tenuto!F,2 E,!mf!D,!<(! C,D,E,F,!<)! |!f! !tenuto!G,2!>(! =E,E,!mf! F,2!<(! F,F,!>)!!<)! | %5
!<(! B,B,B,!ff!B, !tenuto!E2!>(! G,G,!<)!!>)! | F,2!p! F,2 [B,,F,]4 || %7
!mf! !tenuto!B,,3!>(! B,, B,,B,,B,,B,,!>)! | !tenuto!B,,3 B,, B,,B,,B,,!p!B,, | %9
 (3:2:2!tenuto!B,,2 B,,!>(! B,,!<(!B,, (!tenuto!E,2!>(! F,2)!>)!!<)!!>)! | %10
!p! G,2 z!pp! D, E,2 F,2 | !fermata!B,,8 ||!f! [B,,F,]-x x2 x2 x2 x2 x2 x2 [B,,F,]16 || %13
!ff!"^_____________________________________________\n*. Originally \"Благочестивейшаго, Самодержавиейшаго\" (Those pious ones of the Autocracy)." [B,,F,]3 E, E,4- | %14
 E,2 E,E, D,4 |[M:6/4] G,4- G,2 !tenuto!F,2 (3!>!E,2 !>!D,2 !>!C,2 |[M:4/4] F,6- F,B,, | %17
 !fermata!B,,8 |] %18
V:7
 x6 | x6 ||[M:4/4] x8 | x8 | x8 | x8 | x8 || x8 | x8 | x8 | x8 | x8 || x30 || x8 | x8 | %15
[M:6/4] x12 |[M:4/4] (F,4 F,,3 B,,,) | B,,,8 |] %18

